!!!COM: Kittel, Johann Christian
!!!CDT: 1732/02/18-1809/04/17
!!!OPR: 24 Choräle mit acht verschiedenen Bässen
!!!ONM: 1
!!!OTL@@DE: Gott des Himmels und der Erden
**kern	**fb	**kern	**fb	**kern	**fb	**kern
*	*	*	*	*	*	*
*I"3	*	*I"2	*	*I"1	*	*I"c.f.
*I'3	*	*I'2	*	*I'1	*	*
*clefF4	*	*clefF4	*	*clefF4	*	*clefG2
*k[f#]	*	*k[f#]	*	*k[f#]	*	*k[f#]
*M4/4	*	*M4/4	*	*M4/4	*	*M4/4
*met(c)	*	*met(c)	*	*met(c)	*	*met(c)
*MM180	*	*MM180	*	*MM180	*	*MM180
=1	=1	=1	=1	=1	=1	=1
*G:	*	*G:	*	*G:	*	*G:
2B	6	2G	.	2GG	.	2g
2A	6	2F#	6	2D	.	2a
=2.	=2.	=2.	=2.	=2.	=2.	=2.
2G	.	2G	.	2G	.	2b
2F#	6	2D	.	2F#	6	2dd
=3.	=3.	=3.	=3.	=3.	=3.	=3.
*D:	*	*D:	*	*D:	*	*
2E	7	2C#	6 5	2E	6#	2g
.	6#	.	.	.	.	.
1D	3 5	2D	3 5	2D	.	2f#
=4.	=4.	=4.	=4.	=4.	=4.	=4.
.	4 2_	1AA	4 8_	1AA	5_ 4	1e
.	3 X	.	.	.	.	.
2C#	6_ 3	.	#	.	X #	.
.	X 5	.	X 7	.	.	.
=5.	=5.	=5.	=5.	=5.	=5.	=5.
1D;	.	1D;	8 3	1D;	8 3	1d;
=6	=6	=6	=6	=6	=6	=6
*G:	*	*	*	*	*	*
2CnX	.	1CnX	5 3	2AA	.	2e
*	*	*G:	*	*	*	*
2AA	6	.	4 2	2D	.	2f#
=7.	=7.	=7.	=7.	=7.	=7.	=7.
2E	.	2BB	6	2BB	6	2g
*	*	*	*	*G:	*	*
2C	6 5	2C	6 5	2AA	6	2a
=8.	=8.	=8.	=8.	=8.	=8.	=8.
1D	6 4	2D	6 4	2GG	.	2b
.	5_ 3_ 8	2DD	5_ 3_ 8	2D	8	2a
.	X X 7	.	X X 7	.	7	.
=9.	=9.	=9.	=9.	=9.	=9.	=9.
1GG;	X 8 3	1GG;	X 8 3	1GG;	8 3	1g;
=10:|!	=10:|!	=10:|!	=10:|!	=10:|!	=3:|!	=3:|!
2GG	.	2G	.	2GG	.	2b
1G	3 5	4E	5_ 3_	4BB	6_	2b
.	.	4D	X X	4C	X	.
=11.	=11.	=11.	=11.	=11.	=11.	=11.
.	2 7 4	2C	6	2D	.	2a
.	.	.	4 2	.	.	.
*C:	*	*	*	*	*	*
2F	4 2	2BB	6	2G	.	2b
=12.	=12.	=12.	=12.	=12.	=12.	=12.
2E	6	2AA	7 #6	2E	6	2cc
*G:	*	*	*	*	*	*
4BB	6	2GG	.	4BB	6_	2b
4GG	.	.	.	4C	X	.
=13.	=13.	=13.	=13.	=13.	=13.	=13.
1D;	4	1D;	4	1D;	4	1a;
.	3	.	3	.	3	.
=14	=14	=14	=14	=14	=14	=14
2AA	.	1C	3 5	2C	.	2e
2D	7	.	4 2	2AA	6	2f#
=15.	=15.	=15.	=15.	=15.	=15.	=15.
2E	5 3	2BB	6	2GG	.	2g
2C	6 5	2C	6 5	2C	6	2a
=16.	=16.	=16.	=16.	=16.	=16.	=16.
2D	6 4	2D	6 4	2D	6 4	2b
2DD	5_ 3_ 8	2DD	5_ 3_ 8	2DD	5_ 3_ 8	2a
.	X X 7	.	X X 7	.	X X 7	.
=17.	=17.	=17.	=17.	=17.	=17.	=17.
1G	8 3	1GG;	8 3	1GG;	8 3	1g;
==	==	==	==	==	==	==
*-	*-	*-	*-	*-	*-	*-
!!!AGN: chorale
!!!EED: Wolfgang Drescher
!!!END: 2023/04/07
!!!ENC: Wolfgang Drescher
!!!END: 2023/04/07
!!!title: @{ONM}. @{OTL@@DE}
